file/al-jazeera.svg

<svg clip-rule="evenodd" fill-rule="evenodd" stroke-linejoin="round" stroke-miterlimit="1.41421" viewBox="0 0 560 400" xmlns="http://www.w3.org/2000/svg"><g transform="matrix(.754552 0 0 .754552 100 139.153)"><path d="m42.601 160.724c-4.85-1.598-9.453-6.121-12.712-12.491-.754-1.474-1.371-2.788-1.371-2.92 0-.374 2.271-1.624 2.377-1.308.05.15.692 1.234 1.427 2.411 5.519 8.83 13.073 9.8 16.652 2.14 1.004-2.149 1.483-4.131 2.06-8.517.826-6.282 2.1-13.977 2.671-16.129 1.6-6.031 5.028-10.79 13.611-18.901 7.469-7.058 11.069-12.55 11.49-17.531.085-1.003.074-1.824-.024-1.824s-.908.642-1.8 1.427c-.892.786-2.976 2.441-4.63 3.679-4.239 3.173-6.073 4.808-7.328 6.535-.599.824-1.168 1.499-1.264 1.499-.097 0-.641-1.396-1.208-3.103-.814-2.443-1.035-3.464-1.04-4.806-.009-2.012.349-2.812 2.396-5.353 2.657-3.299 4.021-6.969 4.023-10.828.003-4.108-1.802-7.686-7.071-14.02-2.348-2.822-9.149-10.07-9.449-10.07-.098 0-.151 1.615-.117 3.589.141 8.201-1.434 14.461-5.903 23.464-2.853 5.748-3.454 7.133-4.594 10.593-1.201 3.648-1.579 5.657-1.739 9.239l-.144 3.207-1.056 1.036c-.581.57-1.119.974-1.196.897-.338-.339-.638-5.234-.511-8.347.234-5.731 1.587-10.86 4.91-18.615 6.288-14.676 7.92-20.126 7.583-25.332-.14-2.157-.335-2.83-2.489-8.613-1.836-4.931-1.317-9.744 1.534-14.23.723-1.137.81-1.423.594-1.946-.14-.338-.697-1.618-1.239-2.845-1.663-3.766-2.075-5.729-2.088-9.936-.012-3.902.279-5.545 1.43-8.059.998-2.182 3.772-4.716 5.161-4.716.983 0 .835.416-.513 1.433-2.864 2.163-3.889 5.917-2.909 10.661 1.017 4.923 3.041 8.407 9.747 16.777 15.843 19.773 23.811 31.368 30.059 43.743 3.974 7.87 5.576 11.984 7.225 18.554 1.698 6.762 2.241 12.372 1.751 18.089-1.066 12.439-6.051 21.116-14.612 25.432-5.883 2.967-13.603 3.467-20.523 1.329-2.507-.774-2.429-.601-1.844-4.085.58-3.457.998-4.806 1.471-4.754.184.021 1.375.225 2.646.454 5.625 1.015 11.696-.239 16.304-3.367 1.488-1.011 4.202-3.636 5.513-5.331 2.25-2.911 4.043-6.762 5.096-10.944.776-3.081 1.071-9.372.593-12.643-.367-2.51-1.648-6.78-3.09-10.303-5.054-12.344-13.862-25.567-32.902-49.397-.856-1.07-2.431-3.123-3.502-4.562-1.07-1.439-2.027-2.616-2.125-2.616-.328 0-1.428 1.88-1.843 3.147-.294.899-.378 1.78-.3 3.133.211 3.641 1.744 5.913 9.428 13.969 4.689 4.916 7.34 8.114 9.679 11.676 4.346 6.621 5.915 13.244 4.438 18.732-.145.539-.217 1.027-.159 1.085.329.328 5.014-3.922 6.425-5.829.479-.647.96-1.079 1.075-.964.295.295 1.823 6.474 2.391 9.667.789 4.441 1.062 7.617.911 10.626-.161 3.232-.608 4.819-2.255 8.002-1.678 3.245-3.904 5.969-10.354 12.671-6.379 6.627-8.629 9.376-9.434 11.528-.803 2.148-1.764 7.488-2.322 12.909-.819 7.963-1.601 13.483-2.19 15.475-.88 2.971-2.433 4.993-4.687 6.102-1.431.705-1.884.804-3.947.866-1.958.059-2.628-.028-4.187-.541zm24.43-10.123c-1.842-.912-3.173-2.909-4.575-6.864-.492-1.386-.6-1.971-.404-2.167.42-.421.89.12 1.475 1.697.733 1.978 1.522 3.272 2.239 3.675.532.298.718.299 1.335.005.575-.275.731-.52.791-1.252.143-1.718 1.087-.823 1.846 1.749.534 1.809.499 2.136-.321 2.955-.847.848-1.047.865-2.386.202zm-19.426-6.541-5.401-4.417-5.167 6.319 5.401 4.417zm-15.087-103.378c0 2.649 2.194 4.898 4.897 4.898 1.214 0 2.323-.447 3.179-1.179l.639-.456-.099 1.695c-.126 2.228-.963 3.93-3.034 6.167-2.239 2.418-4.419 3.985-11.528 8.281-9.713 5.87-13.012 8.18-16.509 11.559-4.495 4.342-7.63 9.604-9.003 15.117-1.876 7.528-1.275 14.766 1.908 23.101.91 2.384.927 2.519 1.065 6.571.365 10.767 3.066 18.175 8.653 23.732 2.838 2.823 5.434 4.167 8.821 4.586.847.104 2.084.147 2.753.091 8.113-.685 11.659-7.398 13.399-25.368.226-2.342.534-4.606.684-5.034.185-.524 1.787-2.156 4.927-5.026 4.943-4.516 5.931-5.801 5.932-7.688 0-1.166-.994-8.124-1.194-8.349-.088-.099-.65.494-1.247 1.315-.999 1.372-4.184 4.468-8.35 8.114-2.731 2.39-3.241 3.646-4.167 10.235-1.614 11.484-3.663 17.538-7.102 20.98-3.177 3.18-8.346 3.983-12.41 1.924-4.13-2.093-7.188-8.368-7.559-15.497l-.144-2.799 1.878 1.757c2.5 2.335 4.533 3.353 6.707 3.353 2.049.001 2.723-.199 3.787-1.133 1.565-1.374 2.304-3.575 2.304-6.874 0-6.591-3.537-14.492-7.399-16.516-1.558-.817-3.634-.738-5.125.19-1.44.896-2.861 2.862-3.597 4.988-.302.872-.657 1.638-.791 1.703-.449.22-.874-2.769-.882-6.205-.006-2.524.126-4.048.502-5.885 1.406-6.868 4.122-11.764 9.49-17.117 3.631-3.622 7.38-6.475 15.779-12.007 6.493-4.277 9.267-6.587 10.805-8.988.679-1.06.817-1.171.882-.715.232 1.624-1.729 6.654-6.235 15.999-3.693 7.657-4.849 10.332-6.707 15.467-2.343 6.478-3.796 12.258-4.646 18.478-.544 3.982-.737 12.192-.403 17.421.297 4.656 1.327 11.95 1.741 12.365.167.166.508-.023 1.065-.593l.829-.844-.441-2.677c-1.63-9.869-1.012-20.405 1.832-31.215 2.011-7.645 4.424-13.739 10.152-25.604 5.046-10.452 5.951-13.986 5.711-22.386-.2-6.969-1.124-11.037-2.981-13.102-1.015-1.129-2.089-1.719-3.506-1.719-3.443 0-5.262 2.236-5.262 4.889zm16.313 92.382-5.4-4.417-5.168 6.319 5.401 4.417zm.348-4.978c-3.089-2.965-6.168-7.301-8.4-11.831l-.929-1.884 1.077-1.097c.592-.603 1.199-1.097 1.35-1.097s.702.63 1.226 1.399c1.172 1.723 5.226 5.946 7.471 7.783 1.48 1.211 1.648 1.433 1.501 1.992-.091.345-.421 1.873-.734 3.394-.313 1.522-.625 2.823-.694 2.891-.068.068-.909-.629-1.868-1.55zm32.903-12.897-6.282-3.038-3.511 7.262 6.282 3.037zm-67.784-8.821c.471.012.921.13 1.346.349.88.455 2.171 2.389 2.168 3.255-.002.342-.328 1.183-.723 1.871-.56.976-.997 1.389-1.992 1.885-1.692.844-3.714.872-5.437.069-1.864-.869-1.928-1.03-1.103-2.776 1.373-2.903 3.701-4.709 5.741-4.653zm47.19-4.352-6.281-3.037-3.511 7.261 6.281 3.037zm-45.232-11.955c-.882-.921-1.122-2.091-.859-4.189.152-1.203.48-2.216 1.108-3.409 1.605-3.055 6.66-7.497 6.66-5.853 0 .096-1.027 1.231-2.283 2.522-3.393 3.488-4.505 6.047-3.296 7.584.845 1.074 2.416.765 2.416-.476 0-.688.807-1.691 1.177-1.462.378.233.356 1.04-.064 2.438-.936 3.108-3.288 4.485-4.859 2.845zm33.689-3.373c-.619-2.226-.43-2.531 5.555-8.985 2.46-2.654 4.785-5.249 5.166-5.768.744-1.011.778-.989 1.152.739.168.776.127 1.213-.176 1.88-.217.477-2.421 3.076-4.897 5.775-2.476 2.698-4.885 5.432-5.353 6.075-.469.643-.929 1.176-1.023 1.183s-.285-.397-.424-.899zm-13.984-37.668c0 2.686-2.211 4.897-4.897 4.897-2.687 0-4.897-2.211-4.897-4.897s2.21-4.897 4.897-4.897c2.686 0 4.897 2.211 4.897 4.897z" fill="#d4a10f" fill-rule="nonzero"/><path d="m209.228 84.075v46.766s.75 7.208-4.195 12.617c-6.867 7.513-19.112 1.183-19.112 1.183l2.607-9.507s1.533 1.074 3.68 1.074c2.86 0 5.673-3.136 5.673-6.747l-.153-45.386zm102.711.111h29.144v9.57h-17.943v8.917h15.116v9.243h-15.225v8.591h19.466v9.352h-30.558zm40.671 0h29.144v9.57h-17.943v8.917h15.116v9.243h-15.225v8.591h19.466v9.352h-30.558zm-51.654 11.527-16.529 24.25h16.964v9.896h-32.298v-11.527l16.857-24.576h-16.204v-9.57h31.21zm-176.59-11.572h12.882l15.671 45.498h-12.45l-2.291-8.148h-15.217l-2.766 8.148h-11.78zm290.453.044c7.016 0 11.088 6.229 11.088 12.536s-3.156 8.235-3.156 8.235-2.14 1.752-3.89 2.961c1.637 0 3.134 3.674 3.134 3.674l7.068 18.048-11.759-.021s-5.464-14.19-6.851-15.843c-1.177-1.403-3.073-1.103-5.75-1.103v16.967h-11.412v-45.454zm-182.263-.044h12.882l15.671 45.498h-12.45l-2.291-8.148h-15.217l-2.766 8.148h-11.78zm215.996 0h12.882l15.67 45.498h-12.45l-2.291-8.148h-15.216l-2.767 8.148h-11.78zm-287.552.045h11.201v35.777h14.572v9.57h-25.882zm-26.086 26.757-4.301-13.487-4.323 13.487zm108.19 0-4.301-13.487-4.323 13.487zm215.996 0-4.302-13.487-4.323 13.487zm-48.95-17.054h-5.511v8.97h5.598c2.095 0 4.063-2.086 4.063-4.452 0-2.367-2.093-4.517-4.15-4.518z" fill="#00529c"/></g></svg>

<?xml version="1.0" encoding="UTF-8" standalone="no"?>
<!DOCTYPE svg PUBLIC "-//W3C//DTD SVG 1.1//EN" "http://www.w3.org/Graphics/SVG/1.1/DTD/svg11.dtd">
<svg width="100%" height="100%" viewBox="0 0 560 400" version="1.1" xmlns="http://www.w3.org/2000/svg" xmlns:xlink="http://www.w3.org/1999/xlink" xml:space="preserve" xmlns:serif="http://www.serif.com/" style="fill-rule:evenodd;clip-rule:evenodd;stroke-linejoin:round;stroke-miterlimit:1.41421;">
    <g transform="matrix(0.754552,0,0,0.754552,100,139.153)">
        <g id="g15972">
            <path id="path3297" d="M42.601,160.724C37.751,159.126 33.148,154.603 29.889,148.233C29.135,146.759 28.518,145.445 28.518,145.313C28.518,144.939 30.789,143.689 30.895,144.005C30.945,144.155 31.587,145.239 32.322,146.416C37.841,155.246 45.395,156.216 48.974,148.556C49.978,146.407 50.457,144.425 51.034,140.039C51.86,133.757 53.134,126.062 53.705,123.91C55.305,117.879 58.733,113.12 67.316,105.009C74.785,97.951 78.385,92.459 78.806,87.478C78.891,86.475 78.88,85.654 78.782,85.654C78.684,85.654 77.874,86.296 76.982,87.081C76.09,87.867 74.006,89.522 72.352,90.76C68.113,93.933 66.279,95.568 65.024,97.295C64.425,98.119 63.856,98.794 63.76,98.794C63.663,98.794 63.119,97.398 62.552,95.691C61.738,93.248 61.517,92.227 61.512,90.885C61.503,88.873 61.861,88.073 63.908,85.532C66.565,82.233 67.929,78.563 67.931,74.704C67.934,70.596 66.129,67.018 60.86,60.684C58.512,57.862 51.711,50.614 51.411,50.614C51.313,50.614 51.26,52.229 51.294,54.203C51.435,62.404 49.86,68.664 45.391,77.667C42.538,83.415 41.937,84.8 40.797,88.26C39.596,91.908 39.218,93.917 39.058,97.499L38.914,100.706L37.858,101.742C37.277,102.312 36.739,102.716 36.662,102.639C36.324,102.3 36.024,97.405 36.151,94.292C36.385,88.561 37.738,83.432 41.061,75.677C47.349,61.001 48.981,55.551 48.644,50.345C48.504,48.188 48.309,47.515 46.155,41.732C44.319,36.801 44.838,31.988 47.689,27.502C48.412,26.365 48.499,26.079 48.283,25.556C48.143,25.218 47.586,23.938 47.044,22.711C45.381,18.945 44.969,16.982 44.956,12.775C44.944,8.873 45.235,7.23 46.386,4.716C47.384,2.534 50.158,0 51.547,0C52.53,0 52.382,0.416 51.034,1.433C48.17,3.596 47.145,7.35 48.125,12.094C49.142,17.017 51.166,20.501 57.872,28.871C73.715,48.644 81.683,60.239 87.931,72.614C91.905,80.484 93.507,84.598 95.156,91.168C96.854,97.93 97.397,103.54 96.907,109.257C95.841,121.696 90.856,130.373 82.295,134.689C76.412,137.656 68.692,138.156 61.772,136.018C59.265,135.244 59.343,135.417 59.928,131.933C60.508,128.476 60.926,127.127 61.399,127.179C61.583,127.2 62.774,127.404 64.045,127.633C69.67,128.648 75.741,127.394 80.349,124.266C81.837,123.255 84.551,120.63 85.862,118.935C88.112,116.024 89.905,112.173 90.958,107.991C91.734,104.91 92.029,98.619 91.551,95.348C91.184,92.838 89.903,88.568 88.461,85.045C83.407,72.701 74.599,59.478 55.559,35.648C54.703,34.578 53.128,32.525 52.057,31.086C50.987,29.647 50.03,28.47 49.932,28.47C49.604,28.47 48.504,30.35 48.089,31.617C47.795,32.516 47.711,33.397 47.789,34.75C48,38.391 49.533,40.663 57.217,48.719C61.906,53.635 64.557,56.833 66.896,60.395C71.242,67.016 72.811,73.639 71.334,79.127C71.189,79.666 71.117,80.154 71.175,80.212C71.504,80.54 76.189,76.29 77.6,74.383C78.079,73.736 78.56,73.304 78.675,73.419C78.97,73.714 80.498,79.893 81.066,83.086C81.855,87.527 82.128,90.703 81.977,93.712C81.816,96.944 81.369,98.531 79.722,101.714C78.044,104.959 75.818,107.683 69.368,114.385C62.989,121.012 60.739,123.761 59.934,125.913C59.131,128.061 58.17,133.401 57.612,138.822C56.793,146.785 56.011,152.305 55.422,154.297C54.542,157.268 52.989,159.29 50.735,160.399C49.304,161.104 48.851,161.203 46.788,161.265C44.83,161.324 44.16,161.237 42.601,160.724ZM67.031,150.601C65.189,149.689 63.858,147.692 62.456,143.737C61.964,142.351 61.856,141.766 62.052,141.57C62.472,141.149 62.942,141.69 63.527,143.267C64.26,145.245 65.049,146.539 65.766,146.942C66.298,147.24 66.484,147.241 67.101,146.947C67.676,146.672 67.832,146.427 67.892,145.695C68.035,143.977 68.979,144.872 69.738,147.444C70.272,149.253 70.237,149.58 69.417,150.399C68.57,151.247 68.37,151.264 67.031,150.601ZM47.605,144.06L42.204,139.643L37.037,145.962L42.438,150.379L47.605,144.06ZM32.518,40.682C32.518,43.331 34.712,45.58 37.415,45.58C38.629,45.58 39.738,45.133 40.594,44.401L41.233,43.945L41.134,45.64C41.008,47.868 40.171,49.57 38.1,51.807C35.861,54.225 33.681,55.792 26.572,60.088C16.859,65.958 13.56,68.268 10.063,71.647C5.568,75.989 2.433,81.251 1.06,86.764C-0.816,94.292 -0.215,101.53 2.968,109.865C3.878,112.249 3.895,112.384 4.033,116.436C4.398,127.203 7.099,134.611 12.686,140.168C15.524,142.991 18.12,144.335 21.507,144.754C22.354,144.858 23.591,144.901 24.26,144.845C32.373,144.16 35.919,137.447 37.659,119.477C37.885,117.135 38.193,114.871 38.343,114.443C38.528,113.919 40.13,112.287 43.27,109.417C48.213,104.901 49.201,103.616 49.202,101.729C49.202,100.563 48.208,93.605 48.008,93.38C47.92,93.281 47.358,93.874 46.761,94.695C45.762,96.067 42.577,99.163 38.411,102.809C35.68,105.199 35.17,106.455 34.244,113.044C32.63,124.528 30.581,130.582 27.142,134.024C23.965,137.204 18.796,138.007 14.732,135.948C10.602,133.855 7.544,127.58 7.173,120.451L7.029,117.652L8.907,119.409C11.407,121.744 13.44,122.762 15.614,122.762C17.663,122.763 18.337,122.563 19.401,121.629C20.966,120.255 21.705,118.054 21.705,114.755C21.705,108.164 18.168,100.263 14.306,98.239C12.748,97.422 10.672,97.501 9.181,98.429C7.741,99.325 6.32,101.291 5.584,103.417C5.282,104.289 4.927,105.055 4.793,105.12C4.344,105.34 3.919,102.351 3.911,98.915C3.905,96.391 4.037,94.867 4.413,93.03C5.819,86.162 8.535,81.266 13.903,75.913C17.534,72.291 21.283,69.438 29.682,63.906C36.175,59.629 38.949,57.319 40.487,54.918C41.166,53.858 41.304,53.747 41.369,54.203C41.601,55.827 39.64,60.857 35.134,70.202C31.441,77.859 30.285,80.534 28.427,85.669C26.084,92.147 24.631,97.927 23.781,104.147C23.237,108.129 23.044,116.339 23.378,121.568C23.675,126.224 24.705,133.518 25.119,133.933C25.286,134.099 25.627,133.91 26.184,133.34L27.013,132.496L26.572,129.819C24.942,119.95 25.56,109.414 28.404,98.604C30.415,90.959 32.828,84.865 38.556,73C43.602,62.548 44.507,59.014 44.267,50.614C44.067,43.645 43.143,39.577 41.286,37.512C40.271,36.383 39.197,35.793 37.78,35.793C34.337,35.793 32.518,38.029 32.518,40.682ZM48.831,133.064L43.431,128.647L38.263,134.966L43.664,139.383L48.831,133.064ZM49.179,128.086C46.09,125.121 43.011,120.785 40.779,116.255L39.85,114.371L40.927,113.274C41.519,112.671 42.126,112.177 42.277,112.177C42.428,112.177 42.979,112.807 43.503,113.576C44.675,115.299 48.729,119.522 50.974,121.359C52.454,122.57 52.622,122.792 52.475,123.351C52.384,123.696 52.054,125.224 51.741,126.745C51.428,128.267 51.116,129.568 51.047,129.636C50.979,129.704 50.138,129.007 49.179,128.086ZM82.082,115.189L75.8,112.151L72.289,119.413L78.571,122.45L82.082,115.189ZM14.298,106.368C14.769,106.38 15.219,106.498 15.644,106.717C16.524,107.172 17.815,109.106 17.812,109.972C17.81,110.314 17.484,111.155 17.089,111.843C16.529,112.819 16.092,113.232 15.097,113.728C13.405,114.572 11.383,114.6 9.66,113.797C7.796,112.928 7.732,112.767 8.557,111.021C9.93,108.118 12.258,106.312 14.298,106.368ZM61.488,102.016L55.207,98.979L51.696,106.24L57.977,109.277L61.488,102.016ZM16.256,90.061C15.374,89.14 15.134,87.97 15.397,85.872C15.549,84.669 15.877,83.656 16.505,82.463C18.11,79.408 23.165,74.966 23.165,76.61C23.165,76.706 22.138,77.841 20.882,79.132C17.489,82.62 16.377,85.179 17.586,86.716C18.431,87.79 20.002,87.481 20.002,86.24C20.002,85.552 20.809,84.549 21.179,84.778C21.557,85.011 21.535,85.818 21.115,87.216C20.179,90.324 17.827,91.701 16.256,90.061ZM49.945,86.688C49.326,84.462 49.515,84.157 55.5,77.703C57.96,75.049 60.285,72.454 60.666,71.935C61.41,70.924 61.444,70.946 61.818,72.674C61.986,73.45 61.945,73.887 61.642,74.554C61.425,75.031 59.221,77.63 56.745,80.329C54.269,83.027 51.86,85.761 51.392,86.404C50.923,87.047 50.463,87.58 50.369,87.587C50.275,87.594 50.084,87.19 49.945,86.688ZM35.961,49.02C35.961,51.706 33.75,53.917 31.064,53.917C28.377,53.917 26.167,51.706 26.167,49.02C26.167,46.334 28.377,44.123 31.064,44.123C33.75,44.123 35.961,46.334 35.961,49.02Z" style="fill:rgb(212,161,15);fill-rule:nonzero;"/>
        </g>
        <g id="g16954">
            <path id="path3350" d="M209.228,84.075L209.228,130.841C209.228,130.841 209.978,138.049 205.033,143.458C198.166,150.971 185.921,144.641 185.921,144.641L188.528,135.134C188.528,135.134 190.061,136.208 192.208,136.208C195.068,136.208 197.881,133.072 197.881,129.461L197.728,84.075L209.228,84.075ZM311.939,84.186L341.083,84.186L341.083,93.756L323.14,93.756L323.14,102.673L338.256,102.673L338.256,111.916L323.031,111.916L323.031,120.507L342.497,120.507L342.497,129.859L311.939,129.859L311.939,84.186ZM352.61,84.186L381.754,84.186L381.754,93.756L363.811,93.756L363.811,102.673L378.927,102.673L378.927,111.916L363.702,111.916L363.702,120.507L383.168,120.507L383.168,129.859L352.61,129.859L352.61,84.186ZM300.956,95.713L284.427,119.963L301.391,119.963L301.391,129.859L269.093,129.859L269.093,118.332L285.95,93.756L269.746,93.756L269.746,84.186L300.956,84.186L300.956,95.713ZM124.366,84.141L137.248,84.141L152.919,129.639L140.469,129.639L138.178,121.491L122.961,121.491L120.195,129.639L108.415,129.639L124.366,84.141ZM414.819,84.185C421.835,84.185 425.907,90.414 425.907,96.721C425.907,103.028 422.751,104.956 422.751,104.956C422.751,104.956 420.611,106.708 418.861,107.917C420.498,107.917 421.995,111.591 421.995,111.591L429.063,129.639L417.304,129.618C417.304,129.618 411.84,115.428 410.453,113.775C409.276,112.372 407.38,112.672 404.703,112.672L404.703,129.639L393.291,129.639L393.291,84.185L414.819,84.185ZM232.556,84.141L245.438,84.141L261.109,129.639L248.659,129.639L246.368,121.491L231.151,121.491L228.385,129.639L216.605,129.639L232.556,84.141ZM448.552,84.141L461.434,84.141L477.104,129.639L464.654,129.639L462.363,121.491L447.147,121.491L444.38,129.639L432.6,129.639L448.552,84.141ZM161,84.186L172.201,84.186L172.201,119.963L186.773,119.963L186.773,129.533L160.891,129.533L161,84.186ZM134.914,110.943L130.613,97.456L126.29,110.943L134.914,110.943ZM243.104,110.943L238.803,97.456L234.48,110.943L243.104,110.943ZM459.1,110.943L454.798,97.456L450.475,110.943L459.1,110.943ZM410.15,93.889L404.639,93.889L404.639,102.859L410.237,102.859C412.332,102.859 414.3,100.773 414.3,98.407C414.3,96.04 412.207,93.89 410.15,93.889Z" style="fill:rgb(0,82,156);"/>
        </g>
    </g>
</svg>
